static/icons/graphql.svg

<svg xmlns="http://www.w3.org/2000/svg" viewBox="0 0 100 100" fill="#e10098"><style>svg{fill:color(display-p3 0.8824 0 0.5961);}</style><path fill-rule="evenodd" clip-rule="evenodd" d="M50 6.90308L87.323 28.4515V71.5484L50 93.0968L12.677 71.5484V28.4515L50 6.90308ZM16.8647 30.8693V62.5251L44.2795 15.0414L16.8647 30.8693ZM50 13.5086L18.3975 68.2457H81.6025L50 13.5086ZM77.4148 72.4334H22.5852L50 88.2613L77.4148 72.4334ZM83.1353 62.5251L55.7205 15.0414L83.1353 30.8693V62.5251Z"/><circle cx="50" cy="9.3209" r="8.82"/><circle cx="85.2292" cy="29.6605" r="8.82"/><circle cx="85.2292" cy="70.3396" r="8.82"/><circle cx="50" cy="90.6791" r="8.82"/><circle cx="14.7659" cy="70.3396" r="8.82"/><circle cx="14.7659" cy="29.6605" r="8.82"/></svg>

<svg xmlns="http://www.w3.org/2000/svg" viewBox="0 0 100 100" fill="#e10098" style="fill:color(display-p3 .8824 0 .5961)"><path fill-rule="evenodd" clip-rule="evenodd" d="m50 6.903 37.323 21.549v43.096L50 93.097 12.677 71.548V28.451L50 6.903ZM16.865 30.87v31.656L44.28 15.041 16.864 30.87ZM50 13.51 18.398 68.246h63.205L50 13.509Zm27.415 58.924h-54.83L50 88.261l27.415-15.828Zm5.72-9.908L55.72 15.041 83.136 30.87v31.656Z"/><circle cx="50" cy="9.321" r="8.82"/><circle cx="85.229" cy="29.66" r="8.82"/><circle cx="85.229" cy="70.34" r="8.82"/><circle cx="50" cy="90.679" r="8.82"/><circle cx="14.766" cy="70.34" r="8.82"/><circle cx="14.766" cy="29.66" r="8.82"/></svg>
